X: 26134
T: McGreevy's
R: reel
M: 4/4
K: Gmajor
~G3 E DEGA|Bd ~d2 efge|~d3 c BAGE|DGBG AE ~E2|
~G3 E DEGA|Bd ~d2 efge|~d3 c BAGE|DGBG AB G2:|
~g3 a fd ~d2|egdB ABdg|edBA GAB(d|{e}d)BGB A(E {F}E2)|
~g3 a fd ~d2|egdB ABdg|edBA GAB(d|{e}d/c/d) AG EG G2|
~g3 a fd ~d2|egdB ABdg|edBA ~G3 (d|{e}d)BGB A(E {F}E2)|
~G3 E DEGA|Bd ~d2 efge|~d3 c BAGE|DGBG AB G2||

